home/.icons/Gruvbox-Plus-Dark/status/48/notification-microphone-sensitivity-muted.svg

<svg width="48" height="48" version="1" xmlns="http://www.w3.org/2000/svg">
  <path transform="matrix(0,-1,-1,0,0,0)" d="m-5-24c0 5.54-4.46 10-10 10h-4c-5.54 0-10-4.46-10-10s4.46-10 10-10h4c5.54 0 10 4.46 10 10zm-13 13a2 2 0 0 1-2 2h-2.5c-6.3581 0-11.565-5.645-12.377-13h-6.123v8a2 2 0 0 1-2 2 2 2 0 0 1-2-2v-20a2 2 0 0 1 2-2 2 2 0 0 1 2 2v8h6.123c0.81205-7.355 6.0189-13 12.377-13h2.5a2 2 0 0 1 2 2 2 2 0 0 1-2 2h-1.834c-5.078 0-9.166 4.906-9.166 11s4.088 11 9.166 11h1.834a2 2 0 0 1 2 2z" fill="#282828" opacity=".2"/>
  <path d="m11 17a2 2 0 0 0-2 2v2.5c0 6.3581 5.645 11.565 13 12.377v6.123h-8a2 2 0 0 0-2 2 2 2 0 0 0 2 2h20a2 2 0 0 0 2-2 2 2 0 0 0-2-2h-8v-6.123c7.355-0.81205 13-6.0188 13-12.377v-2.5a2 2 0 0 0-2-2 2 2 0 0 0-2 2v1.834c0 5.078-4.906 9.166-11 9.166s-11-4.088-11-9.166v-1.834a2 2 0 0 0-2-2z" fill="#ebdbb2"/>
  <rect transform="matrix(0,-1,-1,0,0,0)" x="-28" y="-34" width="24" height="20" rx="10" ry="10" fill="#665c54"/>
  <path d="m11 17a2 2 0 0 0-2 2v1a2 2 0 0 1 2-2 2 2 0 0 1 2 2v-1a2 2 0 0 0-2-2zm26 0a2 2 0 0 0-2 2v1a2 2 0 0 1 2-2 2 2 0 0 1 2 2v-1a2 2 0 0 0-2-2zm-24 3.834v1c0 5.078 4.906 9.166 11 9.166s11-4.088 11-9.166v-1c0 5.078-4.906 9.166-11 9.166s-11-4.088-11-9.166zm1 19.166a2 2 0 0 0-2 2 2 2 0 0 0 0.064453 0.49609 2 2 0 0 1 1.9355-1.4961h8v-1h-8zm12 0v1h8a2 2 0 0 1 1.9355 1.5039 2 2 0 0 0 0.064453-0.50391 2 2 0 0 0-2-2h-8z" fill="#fbf1c7" opacity=".5"/>
  <path d="m24 4c-5.54 0-10 4.46-10 10v1c0-5.54 4.46-10 10-10s10 4.46 10 10v-1c0-5.54-4.46-10-10-10z" fill="#ebdbb2" opacity=".2"/>
  <circle cx="36" cy="37" r="10" fill="#cc241d"/>
  <path d="M 45.979,37.414 A 10,10 0 0 1 36,47 10,10 0 0 1 26.021,37.586 10,10 0 0 0 26,38 10,10 0 0 0 36,48 10,10 0 0 0 46,38 10,10 0 0 0 45.979,37.414 Z" fill="#282828" opacity=".2"/>
  <g transform="matrix(.70711 -.70711 .70711 .70711 -13.497 35.846)" fill="#ebdbb2">
    <rect x="28" y="35" width="12" height="2"/>
    <rect transform="rotate(-90)" x="-42" y="33" width="12" height="2"/>
  </g>
</svg>

<svg xmlns="http://www.w3.org/2000/svg" width="48" height="48" version="1">
    <rect width="24" height="20" x="-29" y="-34" rx="10" ry="10" transform="matrix(0,-1,-1,0,0,0)"
        style="opacity:0.2" />
    <path
        d="m 11,18 a 2,2 0 0 0 -2,2 l 0,2.5 c 0,6.358104 5.644991,11.564906 13,12.376953 L 22,41 14,41 a 2,2 0 0 0 -2,2 2,2 0 0 0 2,2 l 20,0 a 2,2 0 0 0 2,-2 2,2 0 0 0 -2,-2 l -8,0 0,-6.123047 C 33.355009,34.064906 39,28.858104 39,22.5 L 39,20 a 2,2 0 0 0 -2,-2 2,2 0 0 0 -2,2 l 0,1.833984 C 35,26.911984 30.094,31 24,31 17.906,31 13,26.911984 13,21.833984 L 13,20 a 2,2 0 0 0 -2,-2 z"
        style="opacity:0.2" />
    <path style="fill:#ebdbb2"
        d="M 11 17 A 2 2 0 0 0 9 19 L 9 21.5 C 9 27.858104 14.644991 33.064906 22 33.876953 L 22 40 L 14 40 A 2 2 0 0 0 12 42 A 2 2 0 0 0 14 44 L 34 44 A 2 2 0 0 0 36 42 A 2 2 0 0 0 34 40 L 26 40 L 26 33.876953 C 33.355009 33.064906 39 27.858104 39 21.5 L 39 19 A 2 2 0 0 0 37 17 A 2 2 0 0 0 35 19 L 35 20.833984 C 35 25.911984 30.094 30 24 30 C 17.906 30 13 25.911984 13 20.833984 L 13 19 A 2 2 0 0 0 11 17 z" />
    <rect width="24" height="20" x="-28" y="-34" rx="10" ry="10" transform="matrix(0,-1,-1,0,0,0)"
        style="fill:#665c54" />
    <path style="fill:#ebdbb2;opacity:0.1"
        d="M 11 17 A 2 2 0 0 0 9 19 L 9 20 A 2 2 0 0 1 11 18 A 2 2 0 0 1 13 20 L 13 19 A 2 2 0 0 0 11 17 z M 37 17 A 2 2 0 0 0 35 19 L 35 20 A 2 2 0 0 1 37 18 A 2 2 0 0 1 39 20 L 39 19 A 2 2 0 0 0 37 17 z M 13 20.833984 L 13 21.833984 C 13 26.911984 17.906 31 24 31 C 30.094 31 35 26.911984 35 21.833984 L 35 20.833984 C 35 25.911984 30.094 30 24 30 C 17.906 30 13 25.911984 13 20.833984 z M 14 40 A 2 2 0 0 0 12 42 A 2 2 0 0 0 12.064453 42.496094 A 2 2 0 0 1 14 41 L 22 41 L 22 40 L 14 40 z M 26 40 L 26 41 L 34 41 A 2 2 0 0 1 35.935547 42.503906 A 2 2 0 0 0 36 42 A 2 2 0 0 0 34 40 L 26 40 z" />
    <path style="fill:#ebdbb2;opacity:0.1"
        d="M 24 4 C 18.46 4 14 8.46 14 14 L 14 15 C 14 9.46 18.46 5 24 5 C 29.54 5 34 9.46 34 15 L 34 14 C 34 8.46 29.54 4 24 4 z" />
    <circle cx="36" cy="37" r="10" style="fill:#cc241d" />
    <path
        d="M 45.979,37.414 A 10,10 0 0 1 36,47 10,10 0 0 1 26.021,37.586 10,10 0 0 0 26,38 10,10 0 0 0 36,48 10,10 0 0 0 46,38 10,10 0 0 0 45.979,37.414 Z"
        style="opacity:0.2" />
    <g transform="matrix(0.70711,-0.70711,0.70711,0.70711,-13.497,35.846)" style="fill:#ebdbb2">
        <rect width="12" height="2" x="28" y="35" />
        <rect width="12" height="2" x="-42" y="33" transform="matrix(0,-1,1,0,0,0)" />
    </g>
</svg>
